img/m.svg

<svg width="24" height="24" viewBox="0 0 24 24" fill="none" xmlns="http://www.w3.org/2000/svg">
<path d="M21.75 0.75H2.25C1.85218 0.75 1.47065 0.908033 1.18934 1.18934C0.908033 1.47065 0.75 1.85218 0.75 2.25V21.75C0.75 22.1478 0.908033 22.5293 1.18934 22.8106C1.47065 23.092 1.85218 23.25 2.25 23.25H21.75C22.1478 23.25 22.5293 23.092 22.8106 22.8106C23.092 22.5293 23.25 22.1478 23.25 21.75V2.25C23.25 1.85218 23.092 1.47065 22.8106 1.18934C22.5293 0.908033 22.1478 0.75 21.75 0.75ZM19.4422 6.081L18.2355 7.2375C18.1843 7.2764 18.1448 7.32854 18.1211 7.3883C18.0975 7.44805 18.0906 7.51312 18.1012 7.5765V16.0778C18.0905 16.1411 18.0973 16.2062 18.121 16.266C18.1447 16.3258 18.1843 16.3779 18.2355 16.4167L19.4137 17.574V17.8275H13.4888V17.574L14.709 16.3875C14.8298 16.2675 14.8298 16.2323 14.8298 16.0485V9.17775L11.4352 17.8027H10.977L7.02225 9.17775V14.9528C7.00628 15.0726 7.0177 15.1946 7.05562 15.3094C7.09356 15.4242 7.15702 15.529 7.24125 15.6157L8.829 17.541V17.7952H4.329V17.541L5.91675 15.6157C6.00027 15.5289 6.06229 15.4237 6.09785 15.3085C6.13339 15.1934 6.14149 15.0716 6.1215 14.9528V8.27325C6.13041 8.18197 6.11774 8.08995 6.08453 8.00445C6.0513 7.91902 5.99846 7.84253 5.93025 7.78125L4.51725 6.081V5.8275H8.8995L12.2865 13.2525L15.2648 5.8275H19.4415L19.4422 6.081Z" fill="white"/>
</svg>

<svg width="24" height="24" fill="none" xmlns="http://www.w3.org/2000/svg"><path d="M21.75.75H2.25a1.5 1.5 0 0 0-1.5 1.5v19.5a1.5 1.5 0 0 0 1.5 1.5h19.5a1.5 1.5 0 0 0 1.5-1.5V2.25a1.5 1.5 0 0 0-1.5-1.5Zm-2.308 5.331-1.207 1.156a.352.352 0 0 0-.134.34v8.5a.352.352 0 0 0 .134.34l1.179 1.157v.253h-5.925v-.253l1.22-1.187c.12-.12.12-.155.12-.338V9.178l-3.394 8.625h-.458L7.022 9.178v5.775a.8.8 0 0 0 .22.663l1.587 1.925v.254h-4.5v-.254l1.588-1.925a.771.771 0 0 0 .205-.663v-6.68a.585.585 0 0 0-.192-.492l-1.413-1.7v-.254H8.9l3.388 7.425 2.978-7.425h4.177v.254Z" fill="#fff"/></svg>
